styles/icons/edit-a02.svg

<svg xmlns="http://www.w3.org/2000/svg" xmlns:xlink="http://www.w3.org/1999/xlink" width="24" height="24" viewBox="0 0 24 24">
  <defs>
    <path id="edit-a02-a" d="M12.6916924,6.29341545 L10.738295,4.33680598 L10.7370596,4.33829716 C10.5541297,4.13083498 10.286573,4 9.98850838,4 C9.4371303,4 8.99015004,4.44771525 8.99015004,5 C8.99015004,5.55228475 9.4371303,6 9.98850838,6 L9.98850838,8 C9.30351489,8 8.67223004,7.76966787 8.16763878,7.38210859 L5.20710678,10.3426406 L4.5,9.63553381 L7.48625451,6.6492793 C7.17473918,6.17605563 6.99343336,5.60923575 6.99343336,5 C6.99343336,3.34314575 8.33437412,2 9.98850838,2 C11.6426426,2 12.9835834,3.34314575 12.9835834,5 L17,5 L17,6 L12.8131579,6 C12.7777427,6.1003638 12.7371469,6.1982764 12.6916924,6.29341545 Z M10.9868667,19.012146 L10.9868667,6 L20,15.0099487 L15.8856717,15.0099487 L18.49238,21.1337838 L16.4878212,22 L13.9819417,16.0462646 L10.9868667,19.012146 Z"/>
  </defs>
  <g fill="none" fill-rule="evenodd">
    <use fill="#0E71B3" fill-rule="nonzero" xlink:href="#edit-a02-a"/>
  </g>
</svg>

<svg fill="#0E71B3" height="24" width="24" viewBox="0 0 24 24" xmlns="http://www.w3.org/2000/svg">
    <path d="M12.7,6.3l-2-2l0,0C10.6,4.1,10.3,4,10,4C9.4,4,9,4.4,9,5s0.4,1,1,1v2C9.3,8,8.7,7.8,8.2,7.4l-3,3L4.5,9.6l3-3C7.2,6.2,7,5.6,7,5c0-1.7,1.3-3,3-3s3,1.3,3,3h4v1h-4.2C12.8,6.1,12.7,6.2,12.7,6.3z M11,19V6l9,9h-4.1l2.6,6.1l-2,0.9L14,16L11,19z"/>
</svg>
